docs/img/pnt-btn.svg

<svg width="32" height="32" viewBox="0 0 32 32" fill="none" xmlns="http://www.w3.org/2000/svg">
<rect width="32" height="32" rx="16" fill="#FF0000"/>
<path d="M14.7712 19.6947C14.6405 20.4558 14.4959 21.2901 14.3543 22.1255C14.2454 22.7678 14.1498 23.4119 14.0325 24.0524C13.9393 24.5592 13.5352 24.9009 13.0808 24.8843C12.6162 24.8706 12.1673 24.4814 12.1733 24.0096C12.1806 23.5901 12.2895 23.1712 12.3603 22.7535C12.6325 21.1481 12.906 19.5438 13.1806 17.9407C13.4335 16.4516 13.6854 14.9628 13.9363 13.4742C13.9925 13.1432 14.0428 12.8117 14.0924 12.4795C14.174 11.9287 14.6568 11.5502 15.1741 11.634C15.7186 11.7214 16.0411 12.2205 15.9564 12.779C15.7216 14.3286 15.5879 15.8818 15.9206 17.4368C15.9512 17.5715 15.9902 17.7043 16.0374 17.8343C16.5565 19.3281 18.2662 19.7464 19.4593 18.6715C19.9874 18.1962 20.299 17.5925 20.5114 16.9323C20.9065 15.7014 20.992 14.3947 20.7606 13.1242C20.4938 11.599 19.5646 10.6067 18.0926 10.1052C16.841 9.67853 15.5031 9.55421 14.1922 9.74274C12.6125 9.96259 11.5302 10.8717 10.9125 12.287C10.201 13.9187 10.3021 15.5835 10.8181 17.2467C10.8944 17.4921 10.9996 17.7291 11.0758 17.9739C11.1502 18.1966 11.1348 18.4388 11.0327 18.6506C10.9306 18.8625 10.7496 19.0277 10.5271 19.1124C10.3044 19.2001 10.0553 19.1976 9.83442 19.1054C9.61355 19.0132 9.43888 18.8388 9.34859 18.6204C8.4889 16.5105 8.22272 14.3423 8.9723 12.1611C9.79873 9.75523 11.4933 8.23947 14.0948 7.9091C15.9908 7.67143 17.8591 7.90911 19.59 8.77542C21.3445 9.65422 22.3167 11.1183 22.6222 12.9941C22.9096 14.7642 22.7432 16.5051 22.0299 18.1712C21.6445 19.0732 21.0698 19.8414 20.2319 20.3952C18.7526 21.3727 16.7543 21.3013 15.4415 20.2294C15.2195 20.0482 14.992 19.8706 14.7712 19.6947Z" fill="white"/>
</svg>

<svg width="32" height="32" fill="none" xmlns="http://www.w3.org/2000/svg"><rect width="32" height="32" rx="16" fill="red"/><path d="M14.771 19.695c-.13.76-.275 1.595-.417 2.43-.109.643-.204 1.287-.321 1.927-.094.507-.498.849-.952.832-.465-.013-.914-.403-.908-.874.008-.42.117-.839.187-1.257l.82-4.812c.254-1.49.505-2.978.756-4.467.056-.33.107-.662.156-.995.082-.55.565-.929 1.082-.845.545.087.867.586.782 1.145-.234 1.55-.368 3.103-.035 4.658.03.134.07.267.116.397.52 1.494 2.23 1.912 3.422.838.528-.476.84-1.08 1.052-1.74a7.844 7.844 0 0 0 .25-3.808c-.267-1.525-1.196-2.517-2.668-3.019a8.392 8.392 0 0 0-3.9-.362c-1.58.22-2.663 1.129-3.28 2.544-.712 1.632-.61 3.296-.095 4.96.076.245.182.482.258.727a.9.9 0 0 1-.043.677.925.925 0 0 1-.506.461.923.923 0 0 1-.693-.007.9.9 0 0 1-.485-.485c-.86-2.11-1.126-4.278-.377-6.459.827-2.406 2.521-3.922 5.123-4.252 1.896-.238 3.764 0 5.495.866 1.755.88 2.727 2.343 3.032 4.22.288 1.77.121 3.51-.592 5.176-.386.902-.96 1.67-1.798 2.224-1.48.978-3.478.906-4.79-.166-.223-.18-.45-.358-.67-.534z" fill="#fff"/></svg>
